X:3
T:Chevy Chase 3
Z:Jack Campin, http://www.campin.me.uk/
S:Northumbrian Minstrelsy
M:3/4
L:1/8
Q:"Slowly and Smoothly"
K:G
zA|BA G3 A| BA G3 \
 B|ce d3 B|(B2 A2)
zB|ce d3 B| dB G3 \
 d|eg B3 A| G4 |]

